src/shared/assets/icons/horizontal.svg

<svg xmlns="http://www.w3.org/2000/svg" width="512" height="288" viewBox="0 0 512 288" fill="none"><path fill="#041223" d="M0 0h512v288H0z"/><path d="M200.912 153.982v37.514c0 6.897 5.612 12.504 12.504 12.504h90.033c6.897 0 12.504-5.607 12.504-12.504v-37.514zm54.349-58.546-18.717 4.442 15.681 23.073 20.272-4.612zm-23.918 5.677-20.173 4.782 15.516 22.858 20.302-4.617zm84.53 4.712-4.256-16.146c-.981-3.926-5.002-6.397-8.969-5.492l-16.806 3.992 15.946 23.508 12.219-2.781a2.5 2.5 0 0 0 1.586-1.145c.35-.58.45-1.276.28-1.936m-35.238-16.411-20.062 4.762 17.266 22.953 18.712-4.257zm-54.519 39.564-8.003 20.002h19.622l8.003-20.002zm25.009 0-8.003 20.002h19.622l8.003-20.002zm62.327 0h-12.309l-8.003 20.007h22.813v-17.506a2.496 2.496 0 0 0-2.501-2.501m-37.318 0-8.003 20.002h19.617l8.008-20.002zm-70.165-21.843-4.077.966a7.45 7.45 0 0 0-4.732 3.386 7.45 7.45 0 0 0-.885 5.752l4.637 18.326v13.415h11.814l7.508-18.762 1.22-.275z" opacity=".2" fill="#B1B1B1"/></svg>

<svg xmlns="http://www.w3.org/2000/svg" width="512" height="288" viewBox="0 0 512 288" fill="none">
	<rect width="512" height="288" fill="#041223"/>
	<g opacity="0.2">
	<path d="M200.912 153.982V191.496C200.912 198.393 206.524 204 213.416 204H303.449C310.346 204 315.953 198.393 315.953 191.496V153.982H200.912Z" fill="#B1B1B1"/>
	<path d="M255.261 95.436L236.544 99.8776L252.225 122.951L272.497 118.339L255.261 95.436Z" fill="#B1B1B1"/>
	<path d="M231.343 101.113L211.17 105.895L226.686 128.753L246.988 124.136L231.343 101.113Z" fill="#B1B1B1"/>
	<path d="M315.873 105.825L311.617 89.6792C310.636 85.7527 306.615 83.282 302.648 84.1872L285.842 88.1786L301.788 111.687L314.007 108.906C314.673 108.756 315.243 108.341 315.593 107.761C315.943 107.181 316.043 106.485 315.873 105.825Z" fill="#B1B1B1"/>
	<path d="M280.635 89.4141L260.573 94.1757L277.839 117.129L296.551 112.872L280.635 89.4141Z" fill="#B1B1B1"/>
	<path d="M226.116 128.978L218.113 148.98H237.735L245.738 128.978H226.116Z" fill="#B1B1B1"/>
	<path d="M251.125 128.978L243.122 148.98H262.744L270.747 128.978H251.125Z" fill="#B1B1B1"/>
	<path d="M313.452 128.978H301.143L293.14 148.985H315.953V131.479C315.953 130.094 314.837 128.978 313.452 128.978Z" fill="#B1B1B1"/>
	<path d="M276.134 128.978L268.131 148.98H287.748L295.756 128.978H276.134Z" fill="#B1B1B1"/>
	<path d="M205.969 107.135L201.892 108.101C199.906 108.551 198.226 109.756 197.16 111.487C196.095 113.223 195.78 115.263 196.275 117.239L200.912 135.565V148.98H212.726L220.234 130.218L221.454 129.943L205.969 107.135Z" fill="#B1B1B1"/>
	</g>
</svg>
